X:1
T:[ID 2-17]
T:[ID 2-17]
T:Bezeichnung standardisiert: K\"onigs Quadrille; March In dieser Quelle auch als: K\"onigs Quadrillge In dieser Quelle auch als: K\"onnigs Trille In dieser Quelle auch als: Konigs Quadrille In dieser Quelle auch als: Konigs Quadrillge In dieser Quelle auch als: Quadrillge
T:Urheber unbekannt Datum in der hier transkribierten schriftlichen Quelle: 1767
C:Urheber unbekannt
C:Datum in der hier transkribierten schriftlichen Quelle: 1767
L:1/8
M:2/4
K:D
V:1 treble 
V:1
"^vgl. II, 132" (3A/B/c/ | dd/d/ de | ff/g/ fg | a>d' a>d' | a/b/a/g/ f/g/f/e/ | dd/d/ de | %6
 ff/g/ fg | a/f/b/a/ g/f/e/d/ | [ce][ce]/[ce]/ [ce] :: (3B/c/d/ | ee/f/ ed/e/ | ff/g/ fe/f/ | %12
 d'd'/e'/ d'c'/d'/ | e'e'/e'/ e'2 | bb b/d'/c'/b/ | a/b/a/g/ fg | f/g/a/b/ a/g/f/e/ | dd/d/ d :| %18

